!!!COM: Palestrina, Giovanni Perluigi da
!!!OPR: Missa Spem In Alium
!!!OMD: Credo
!!!OTL: Et in Spiritum
**kern	**kern	**kern	**kern
*Ibass	*Itenor	*Icalto	*Icant
!Bassus	!Tenor	!Altus	!Cantus
*clefF4	*clefGv2	*clefG2	*clefG2
*k[]	*k[]	*k[]	*k[]
*A:aeo	*A:aeo	*A:aeo	*A:aeo
*M4/2	*M4/2	*M4/2	*M4/2
=195	=195	=195	=195
0r	0r	1.a	1r
.	.	.	[1ee
.	.	2a	.
=196	=196	=196	=196
0r	0r	2a	2ee]
.	.	2a	2ee
.	.	2g	2ee
.	.	2cc	2ee
=197	=197	=197	=197
0r	1r	2b	2dd
.	.	2.a	2ff
.	2r	.	2ee
.	.	4g	.
.	[2d	4f	[2ff
.	.	4e	.
=198	=198	=198	=198
0r	2d]	2d	2ff]
.	2c	2e	1ee
.	2A	1f	.
.	2B	.	2dd
=199	=199	=199	=199
2r	2.c	1e	0ee
1A	.	.	.
.	4d	.	.
.	4e	2r	.
.	4f	.	.
2G	[2g	[2e	.
=200	=200	=200	=200
2E	2g]	2e]	0r
2F	2f	2d	.
2G	1e	2B	.
2A	.	2c	.
=201	=201	=201	=201
1D	1f	1d	2r
.	.	.	1a
1E	1e	2B	.
.	.	[2e	2g
=202	=202	=202	=202
2r	1A	2e]	1cc
1A	.	2c	.
.	2r	1f	1a
2F	[2a	.	.
=203	=203	=203	=203
1B-	2a]	1d	2r
.	2g	.	1dd
1A	1a	2r	.
.	.	[2a	2cc
=204	=204	=204	=204
0r	1e	2a]	1b
.	.	2g	.
.	1r	1f	2.a
.	.	.	4b
=205	=205	=205	=205
0r	1r	2.e	2cc
.	.	.	4b
.	.	4f	4a
.	2r	2g	4b
.	.	.	4cc
.	[2d	4f	4dd
.	.	4g	4ee
=206	=206	=206	=206
0r	2d]	4a	2ff
.	.	4b	.
.	2c	2.cc	2ee
.	1f	.	1a
.	.	4b	.
.	.	[2a	.
=207	=207	=207	=207
1r	0e	2a]	2b
.	.	2g#	1ee
[1A	.	1a	.
.	.	.	2cc
=208	=208	=208	=208
2A]	2r	1a	1ff
2F	2.a	.	.
1c	.	1r	2.ee
.	4g	.	.
.	2e	.	.
.	.	.	4dd
=209	=209	=209	=209
2A	1.f	0r	2cc
2.d	.	.	2a
.	.	.	2b-
4c	.	.	.
2A	2e	.	[2a
=210	=210	=210	=210
2B-	1d	2r	2a]
2B-	.	1d	2g
2.A	1e	.	[1a
.	.	2c	.
4G	.	.	.
=211	=211	=211	=211
2F	2r	1f	1a]
2D	1d	.	.
1A	.	1e	2r
.	2c	.	[2a
=212	=212	=212	=212
0r	1f	1d	2a]
.	.	.	2a
.	2e	[1A	[1cc
.	[2a	.	.
=213	=213	=213	=213
0r	4a]	1A]	1cc]
.	4g	.	.
.	2e	.	.
.	1f	2r	1dd
.	.	2d	.
=214	=214	=214	=214
1.A	1e	2d	1ee
.	.	2c	.
.	1r	1f	[1a
2A	.	.	.
=215	=215	=215	=215
1A	0r	2e	1a]
.	.	2.a	.
1c	.	.	1r
.	.	4g	.
.	.	2e	.
=216	=216	=216	=216
1d	1r	1f	2r
.	.	.	1a
1e	2r	2.e	.
.	[2e	.	2g
.	.	4d	.
=217	=217	=217	=217
1A	2e]	4c	2cc
.	.	4B	.
.	2c	2A	2cc
1r	1f	1d	2a
.	.	.	[2dd
=218	=218	=218	=218
1r	1f	2r	4dd]
.	.	.	4cc
.	.	1a	4a
.	.	.	4b
2r	[1e	.	2cc
[2E	.	2g	2b
=219	=219	=219	=219
2E]	1e]	2cc	1ee
2C	.	2cc	.
2F	1A	2a	2cc
2F	.	[2a	2dd
=220	=220	=220	=220
2E	2B	4a]	2.ee
.	.	4g	.
2.A	2.c	2e	.
.	.	.	4dd
.	.	4f	2cc
4G	4B	4e	.
2E	2G	[2e	[2b
=221	=221	=221	=221
1F	1A	2e]	4b]
.	.	.	4a
.	.	2d	1a
1E	1B	1e	.
.	.	.	2g#
=222	=222	=222	=222
0A	2A	1e	0a
.	2e	.	.
.	2e	2r	.
.	2e	2a	.
=223	=223	=223	=223
0r	1f	2a	1r
.	.	2a	.
.	2e	1cc	1ee
.	2c	.	.
=224	=224	=224	=224
0r	1e	2b	2ee
.	.	2g	2ee
.	1d	2a	1ff
.	.	2b	.
=225	=225	=225	=225
1A	2c	1cc	2ee
.	2f	.	2cc
2A	2e	2r	1ee
2A	2c	2a	.
=226	=226	=226	=226
2.B-	2d	2f	1dd
.	2d	2g	.
4A	.	.	.
2A	2e	2.a	2cc
2F	2f	.	2a
.	.	8g	.
.	.	8f	.
=227	=227	=227	=227
1A	2c	2e	2a
.	1f	2f	2a
1G	.	1g	2.b-
.	2e	.	.
.	.	.	4b-
=228	=228	=228	=228
0F	1f	2c	2a
.	.	2.d	2f
.	1r	.	1a
.	.	4c	.
.	.	[2f	.
=229	=229	=229	=229
1r	1c	2f]	1g
.	.	2e	.
1F	2c	1f	2.f
.	2A	.	.
.	.	.	4g
=230	=230	=230	=230
2F	2c	0r	1a
2D	1d	.	.
2F	.	.	1r
2G	2e	.	.
=231	=231	=231	=231
2A	2f#	0r	1r
2B	2.g	.	.
2.c	.	.	2r
.	4f	.	.
.	4e	.	[2cc
4B-	4d	.	.
=232	=232	=232	=232
4A	2e	0r	2cc]
4G	.	.	.
2.A	2f	.	2a
.	2e	.	2cc
4G	.	.	.
2F	[2d	.	2dd
=233	=233	=233	=233
1E	2d]	1r	2ee
.	2c#	.	2ee
[1D	[1d	2r	1ff
.	.	[2f	.
=234	=234	=234	=234
1D]	1d]	2f]	2dd
.	.	2d	1ff
1r	1r	2f	.
.	.	2g	4ee
.	.	.	4dd
=235	=235	=235	=235
0r	0r	2a	2cc
.	.	2b	2dd
.	.	1cc	1ee
=236	=236	=236	=236
0r	1r	2b	2dd
.	.	1a	2cc
.	[1e	.	1b
.	.	2g#	.
=237	=237	=237	=237
0A	1e]	1a	1a
.	1c	[1a	1r
=238	=238	=238	=238
1F	1f	1a]	1r
1B-	2.d	1g	[1dd
.	4e	.	.
=239	=239	=239	=239
0A	1f	0a	1dd]
.	1e	.	1cc
*-	*-	*-	*-
!!!CDT: 1525/^1526/-1594/2/2
!!!OCY: Italia
!!!AGN: Mass (Parody)
!!!AST: renaissance, vocal
!!!ASW: Motet 1539 (Jacquet)
!!!PWK: Masses, Book 3
!!!RNB: Cadence finals: D
!!!YOR: Le Opere Complete, v. 6, p. 1
!!!YOO: Rome, Italy: Fratelli Scalera
!!!END: 1992//
!!!EED: John Miller
!!!YEC: Copyright 2000, John Miller
!!!YEN: United States of America
!!!YEM: Rights to all derivative electronic formats reserved.
!!!YEM: Refer to licensing agreement for further details.
!!!YEM: This file must be accompanied by the licensing agreement.
!!!YEM: A copy of the licensing agreement may be found at http://www.music-cog.ohio-state.edu/HumdrumDatabases/Palestrina/license.txt
!!!EMD: converted to Humdrum by Bret Aarden
